X:1
T:The Trail To Mexico
M:4/4
L:1/4
K:Eb
 B,/2B,/2 B, C| E2- E2-| EG/2-F/2 E C| B,2- B,2| z| B, E G| B4-| Bc/2-B/2 G E|\
 G4-| G B, E G| B4-| Bc/2-B/2 G E| G4-| G B, C E| F4-| F| G E/2E/2 C|\
 E4-| E||
